X: 78
T:Jack's Farewell
M:6/8
L:1/8
Q:160
S:Playford
O:Manuscript
K:F
f/2e/2dd fAG|FAd ^c2e|f/2e/2dd fAA|d/2f/2e^c d3|f/2e/2dd fAG|FAd ^c2e| f/2e/2dd fAA| d/2f/2e^c d3:|
|:A/2B/2cc AFF|fg/2f/22 f2 a|b/2a/2gd eae| f/2e/2d^c d3|A/2B/2cc AFF|fg/2f/22 f2 a|b/2a/2gd eae|f/2e/2d^c d3:|

